X: 13168
T: First Of May, The
R: hornpipe
M: 4/4
K: Adorian
|:AG|"A5"EAAB cBce|d^cde "D"f2 ef|"A5"gfe^c "D"dfec|"A5"(3Bcd AF "Dsus"G2 AG|
"A5"EAAB cBce|d^cde "D"f2 ef|"A5"gfe^c "D"dfe^c|1 "A5"A2 (3GAB A2 AG:|2 "A5"A2 (3GAB A2 (3efg||
|:"D"a3f "A5"g3e|"D"fgfd "A5"e2 ed|"C2"(3B^cd ef gfe^c|d^cAF "Dsus"G2 AG|
"A5"EAAB cBce|d^cde "D"f2 ef|"A5"gfe^c dfe^c|1 "A5"A2 (3GAB A2 (3efg:|2 "A5"A2 (3GAB A2 AG||

